X:2
T:GB/7c/2 Mole-Catcher, The
%%VWML:GB-7c-2-0
F:http://www.vwml.org/record/GB/7c/2
P:F.W. J(ekyll) & G.S.K. B(utterworth)
C:Transcribed by Simon Furey and Lewis Jones
L:1/4
Q:1/4=144
M:3/4
I:linebreak $
K:Ddor
A | A B c | d2 d | c A A | d2 A | A B c | d d d | c A A |$"^(a)" c2 c | B G G | G3 | A F D | C D E | G E D | D2 ||$ A | A B c | d2 d | c A A | d2 A | A B c | d d d | c A A |$
"^(a) var." c A c | B G G | G3 | A F D | C D E | G E D | D2 |]

